public/img/sprite/calculator.svg

<svg xmlns="http://www.w3.org/2000/svg" viewBox="0 0 578.27 578.27"><g fill="#d4d2d2"><path d="M487.539 0H90.731C75.242 0 62.646 12.606 62.646 28.085v522.101c0 15.478 12.597 28.084 28.085 28.084H487.54c15.487 0 28.084-12.606 28.084-28.084V28.085C515.623 12.606 503.027 0 487.539 0zm8.809 550.186c0 4.857-3.951 8.809-8.809 8.809H90.731c-4.857 0-8.81-3.951-8.81-8.809V28.085c0-4.857 3.952-8.809 8.81-8.809H487.54c4.857 0 8.809 3.952 8.809 8.809v522.101z"/><path d="M110.835 530.081h106.016V424.064H110.835v106.017zm19.276-86.741h67.465v67.465h-67.465V443.34zm106.016 86.741h106.016V424.064H236.127v106.017zm19.276-86.741h67.464v67.465h-67.464V443.34zm106.015 86.741h106.016V298.773H361.418v231.308zm19.276-212.032h67.465v192.756h-67.465V318.049zm-269.859 86.74h106.016V298.773H110.835v106.016zm19.276-86.74h67.465v67.465h-67.465v-67.465zm106.016 86.74h106.016V298.773H236.127v106.016zm19.276-86.74h67.464v67.465h-67.464v-67.465zm-144.568-38.552h106.016V173.481H110.835v106.016zm19.276-86.74h67.465v67.465h-67.465v-67.465zm106.016 86.74h106.016V173.481H236.127v106.016zm19.276-86.74h67.464v67.465h-67.464v-67.465zm106.015 86.74h106.016V173.481H361.418v106.016zm19.276-86.74h67.465v67.465h-67.465v-67.465zm-269.859-48.19h356.599V48.189H110.835v96.378zm19.276-77.102h318.048v57.827H130.111V67.465z"/></g></svg>

<?xml version="1.0" encoding="utf-8"?>
<!-- Generator: Adobe Illustrator 15.0.0, SVG Export Plug-In . SVG Version: 6.00 Build 0)  -->
<!DOCTYPE svg PUBLIC "-//W3C//DTD SVG 1.1//EN" "http://www.w3.org/Graphics/SVG/1.1/DTD/svg11.dtd">
<svg version="1.1" id="Capa_1" xmlns="http://www.w3.org/2000/svg" xmlns:xlink="http://www.w3.org/1999/xlink" x="0px" y="0px" viewBox="0 0 578.27 578.27" enable-background="new 0 0 578.27 578.27" xml:space="preserve">
<g>
	<path fill="#d4d2d2" d="M487.539,0H90.731C75.242,0,62.646,12.606,62.646,28.085v522.101c0,15.478,12.597,28.084,28.085,28.084
		h396.809c15.487,0,28.084-12.606,28.084-28.084V28.085C515.623,12.606,503.027,0,487.539,0z M496.348,550.186
		c0,4.857-3.951,8.809-8.809,8.809H90.731c-4.857,0-8.81-3.951-8.81-8.809V28.085c0-4.857,3.952-8.809,8.81-8.809h396.809
		c4.857,0,8.809,3.952,8.809,8.809V550.186z"/>
	<path fill="#d4d2d2" d="M110.835,530.081h106.016V424.064H110.835V530.081z M130.111,443.34h67.465v67.465h-67.465V443.34z"/>
	<path fill="#d4d2d2" d="M236.127,530.081h106.016V424.064H236.127V530.081z M255.403,443.34h67.464v67.465h-67.464V443.34z"/>
	<path fill="#d4d2d2" d="M361.418,530.081h106.016V298.773H361.418V530.081z M380.694,318.049h67.465v192.756h-67.465V318.049z"/>
	<path fill="#d4d2d2" d="M110.835,404.789h106.016V298.773H110.835V404.789z M130.111,318.049h67.465v67.465h-67.465V318.049z"/>
	<path fill="#d4d2d2" d="M236.127,404.789h106.016V298.773H236.127V404.789z M255.403,318.049h67.464v67.465h-67.464V318.049z"/>
	<path fill="#d4d2d2" d="M110.835,279.497h106.016V173.481H110.835V279.497z M130.111,192.757h67.465v67.465h-67.465V192.757z"/>
	<path fill="#d4d2d2" d="M236.127,279.497h106.016V173.481H236.127V279.497z M255.403,192.757h67.464v67.465h-67.464V192.757z"/>
	<path fill="#d4d2d2" d="M361.418,279.497h106.016V173.481H361.418V279.497z M380.694,192.757h67.465v67.465h-67.465V192.757z"/>
	<path fill="#d4d2d2" d="M110.835,144.567h356.599V48.189H110.835V144.567z M130.111,67.465h318.048v57.827H130.111V67.465z"/>
</g>
</svg>
